hero/solid/chevron-down.svg

<svg width="24" height="24" viewBox="0 0 24 24" fill="none" xmlns="http://www.w3.org/2000/svg">
<path fill-rule="evenodd" clip-rule="evenodd" d="M12.5303 16.2803C12.2374 16.5732 11.7626 16.5732 11.4697 16.2803L3.96967 8.78033C3.67678 8.48744 3.67678 8.01256 3.96967 7.71967C4.26256 7.42678 4.73744 7.42678 5.03033 7.71967L12 14.6893L18.9697 7.71967C19.2626 7.42678 19.7374 7.42678 20.0303 7.71967C20.3232 8.01256 20.3232 8.48744 20.0303 8.78033L12.5303 16.2803Z" fill="#0F172A"/>
</svg>

<svg viewBox="0 0 24 24" xmlns="http://www.w3.org/2000/svg"><path fill-rule="evenodd" d="M12.53 16.28v0c-.3.29-.77.29-1.06 0l-7.5-7.5h0C3.68 8.47 3.7 8 4 7.72c.28-.27.73-.27 1.02 0l6.97 6.97 6.97-6.97v0c.28-.31.75-.32 1.06-.04 .3.28.31.75.03 1.06 -.02.01-.03.02-.04.03l-7.5 7.5Z"/></svg>
